icon/fa/palette.svg

<svg xmlns="http://www.w3.org/2000/svg" viewBox="0 0 512 512"><!--! Font Awesome Free 6.1.2 by @fontawesome - https://fontawesome.com License - https://fontawesome.com/license/free (Icons: CC BY 4.0, Fonts: SIL OFL 1.1, Code: MIT License) Copyright 2022 Fonticons, Inc.--><path d="M512 255.1c0 1.8-.9 2.7-.9 3.6.5 36.5-32.7 60.4-69.2 60.4H344c-26.5 0-48 22.4-48 48.9 0 3.4.4 6.7 1 9.9 2.2 10.2 6.5 19.2 10.9 29.9 6 13.8 12.1 27.5 12.1 42 0 31.9-21.6 60.7-53.4 62-3.5.1-7.1.2-10.6.2C114.6 512 0 397.4 0 256S114.6 0 256 0s256 114.6 256 256v-.9zm-416 0c-17.67 0-32 15.2-32 32 0 18.6 14.33 32 32 32 17.7 0 32-13.4 32-32 0-16.8-14.3-32-32-32zm32-64c17.7 0 32-13.4 32-32 0-16.8-14.3-32-32-32s-32 15.2-32 32c0 18.6 14.3 32 32 32zm128-128c-17.7 0-32 15.23-32 32 0 18.6 14.3 32 32 32s32-13.4 32-32c0-16.77-14.3-32-32-32zm128 128c17.7 0 32-13.4 32-32 0-16.8-14.3-32-32-32s-32 15.2-32 32c0 18.6 14.3 32 32 32z"/></svg>

<svg xmlns="http://www.w3.org/2000/svg" viewBox="0 0 512 512" height="1em" width="1em">
<!--! Font Awesome Free 6.1.2 by @fontawesome - https://fontawesome.com License - https://fontawesome.com/license/free (Icons: CC BY 4.0, Fonts: SIL OFL 1.1, Code: MIT License) Copyright 2022 Fonticons, Inc.-->
  <path d="M512 255.1C512 256.9 511.1 257.8 511.1 258.7C511.6 295.2 478.4 319.1 441.9 319.1H344C317.5 319.1 296 341.5 296 368C296 371.4 296.4 374.7 297 377.9C299.2 388.1 303.5 397.1 307.9 407.8C313.9 421.6 320 435.3 320 449.8C320 481.7 298.4 510.5 266.6 511.8C263.1 511.9 259.5 512 256 512C114.6 512 0 397.4 0 256C0 114.6 114.6 0 256 0C397.4 0 512 114.6 512 256V255.1zM96 255.1C78.33 255.1 64 270.3 64 287.1C64 305.7 78.33 319.1 96 319.1C113.7 319.1 128 305.7 128 287.1C128 270.3 113.7 255.1 96 255.1zM128 191.1C145.7 191.1 160 177.7 160 159.1C160 142.3 145.7 127.1 128 127.1C110.3 127.1 96 142.3 96 159.1C96 177.7 110.3 191.1 128 191.1zM256 63.1C238.3 63.1 224 78.33 224 95.1C224 113.7 238.3 127.1 256 127.1C273.7 127.1 288 113.7 288 95.1C288 78.33 273.7 63.1 256 63.1zM384 191.1C401.7 191.1 416 177.7 416 159.1C416 142.3 401.7 127.1 384 127.1C366.3 127.1 352 142.3 352 159.1C352 177.7 366.3 191.1 384 191.1z"/>
</svg>
